X:469
T:Merry Conceit
C:Kynaston, 1710
S:Colin Hume's website,  colinhume.com  - chords can also be printed below the stave.
Q:3/8=112
M:6/8
L:1/8
K:F
P:A
|:c | "F"faf "C7"gbg | "F"a3 "F/A"f2e | "Bb"def "G7/B"gdf | "C"e3 "C7"c2B |
"F"Acf "Gm"Bdf | "F/A"Acf "C7"G2B | "F"Acf "C7"f2e | "F"f3- "/"f2 :|
P:B
a | "C"gec "/"cfg | "F"a3 "Dm"f2e | "Bb"d>ef "Gm"efd | "A"^c3 "A7"A2e |
"Dm"faf "A7"eae | "Dm"faf "A7"eae | "Gm"f>ed "A7"Ad^c | "Dm"d3- "C7"d2 d/e/ |
"F"fed "/"cBA | "C"GAB "Dm"ABc | "Bb"d>ef "G7/B"gdf | "C"e3 "C7"c2 f/g/ |
"F"a2z "Bb"b2z | "F"a2z "C"gec | "Bb"def "C7"f2e | "F"f3- "/"f2 ||

